X:32
T:Red Haired Boy
M:2/2
L:1/8
K:AMix
AG|"A"E2 A2 ABcd|efec "D"d2cd|"A"e2 A2 ABcA|"G"BGEF G2 FG|
"A"E2 A2 ABcd|efec "D"d2 cd|"A"eaab "G"aged|"A"c2 A2 A2:|ef|
"G"g2 ga gfef|gfec "D"d2 cd|"A"e2 A2 ABcA|BAEF "G"G FG
|"A"E2 A2 ABcd|efec "D"d2 cd|"A"eaab "G"aged|"A"c2 A2 A2:||
